dist/svg/file-text-o.svg

<!-- Generated by Trend Micro Style Portal -->
<svg version="1.1" xmlns="http://www.w3.org/2000/svg" width="16" height="16" viewBox="0 0 16 16">
  <title>file-text-o</title>
  <path fill="rgb(34,34,34)" d="M11 0h-9c-0.5 0-1 0.5-1 1v14c0 0.5 0.5 1 1 1h12c0.5 0 1-0.5 1-1v-11l-4-4zM11 1.4l2.6 2.6h-2.6v-2.6zM14 15h-12v-14h8v4h4v10zM10 8h-6v-1h6v1zM4 9h8v1h-8v-1zM4 11h8v1h-8v-1z"></path>
</svg>

<svg width="16" height="16" viewBox="0 0 16 16" fill="rgb(34, 34, 34)" xmlns="http://www.w3.org/2000/svg"><title>file-text-o</title><path d="M11 0H2C1.5 0 1 0.5 1 1V15C1 15.5 1.5 16 2 16H14C14.5 16 15 15.5 15 15V4L11 0ZM11 1.4L13.6 4H11V1.4ZM14 15H2V1H10V5H14V15ZM10 8H4V7H10V8ZM4 9H12V10H4V9ZM4 11H12V12H4V11Z" fill="rgb(34, 34, 34)" fill-opacity="1.00"/></svg>
